!!!COM:	la Rue, Pierre de
!!!CDT:	~1452///-1518/11/20
!!!OPR:	Missa Ave sanctissima Maria
!!!ONM:	5
!!!OTL:	Agnus Dei
!!!AGN:	Mass; Agnus Dei
!!!SCT:	Rue1005e
!!!SCA:	Rue1005e
!!!voices:	6
!!!voices-OPR:	6(-5)
**kern	**kern	**kern	**kern	**kern	**kern
*staff6	*staff5	*staff4	*staff3	*staff2	*staff1
*Ivox	*Ivox	*Ivox	*Ivox	*Ivox	*Ivox
*I"Bassus2	*I"Bassus1	*I"Contra2	*I"Contra1	*I"Discantus2	*I"Discantus1
*I'B2	*I'B1	*I'C2	*I'C1	*I'D2	*I'D1
*>[A,B]	*>[A,B]	*>[A,B]	*>[A,B]	*>[A,B]	*>[A,B]
*>A	*>A	*>A	*>A	*>A	*>A
*clefF4	*clefF4	*clefGv2	*clefGv2	*clefG2	*clefG2
*k[]	*k[]	*k[]	*k[]	*k[]	*k[]
*M3/1	*M3/1	*M3/1	*M3/1	*M3/1	*M3/1
*met(O|)	*met(O|)	*met(O|)	*met(O|)	*met(O|)	*met(O|)
=1-	=1-	=1-	=1-	=1-	=1-
!!section: Agnus Dei I
!!!OMD: Agnus Dei I
!	!	!	!	!	!LO:TX:X=-40:Z=8:t=6-ex-3 canon at the upper fourth (B2-->B1, C2-->C1, D2-->D1)
1r	0.r	2.G/	0.r	1r	0.r
.	.	4A/	.	.	.
1r	.	2B\	.	1r	.
.	.	1c	.	.	.
1GG	.	.	.	1g	.
.	.	2B\	.	.	.
=2	=2	=2	=2	=2	=2
2.C/	0.r	0c	0.r	2.e/	0.r
4D\	.	.	.	4f/	.
2E\	.	.	.	2g/	.
1F	.	.	.	1a	.
.	.	1c	.	.	.
2E\	.	.	.	2g/	.
=3	=3	=3	=3	=3	=3
2F\	0.r	1c	0.r	2a/	0.r
4E\	.	.	.	4g/	.
4D\	.	.	.	4f/	.
1C	.	2r	.	1e	.
.	.	1c	.	.	.
1r	.	.	.	2r	.
.	.	4B\	.	[2a/	.
.	.	4A/	.	.	.
=4	=4	=4	=4	=4	=4
0.r	0.r	1B	0.r	2a/]	0.r
.	.	.	.	2g/	.
.	.	2A/	.	2f/	.
.	.	1d	.	2d/	.
.	.	.	.	1e	.
.	.	2c\	.	.	.
=5	=5	=5	=5	=5	=5
2r	0.r	2B\	0.r	1d	0.r
1D	.	4A/	.	.	.
.	.	4G/	.	.	.
.	.	1A	.	1r	.
2C/	.	.	.	.	.
2BB/	.	2G/	.	1r	.
2GG/	.	[2G/	.	.	.
=6	=6	=6	=6	=6	=6
1AA	0.r	2G/]	0.r	1r	0.r
.	.	2F#i/	.	.	.
1GG	.	2G/	.	2r	.
.	.	1B	.	1d	.
1r	.	.	.	.	.
.	.	2A/	.	2c/	.
=7	=7	=7	=7	=7	=7
2r	0.r	2G/	0.r	2B/	0.r
1G	.	2E/	.	2G/	.
.	.	1D	.	1A	.
2F\	.	.	.	.	.
2E\	.	1G	.	2G/	.
2C/	.	.	.	[2g/	.
=8	=8	=8	=8	=8	=8
1D	0.r	1r	0.r	2g/]	0.r
.	.	.	.	2f/	.
1C	.	2r	.	2e/	.
.	.	1c	.	2c/	.
1GG	.	.	.	1d	.
.	.	2B\	.	.	.
=9	=9	=9	=9	=9	=9
[0.C	0.r	2.A/	0.r	0.e	0.r
.	.	8G/L	.	.	.
.	.	8F/J	.	.	.
.	.	1G	.	.	.
.	.	2r	.	.	.
.	.	[2c\	.	.	.
=10	=10	=10	=10	=10	=10
0.C]	1r	2c\]	2.c\	0.r	1r
.	.	2B\	.	.	.
.	.	.	4d\	.	.
.	1r	2A/	2e\	.	1r
.	.	4G/	1f	.	.
.	.	4F/	.	.	.
.	1C	1G	.	.	1cc
.	.	.	2e\	.	.
=11	=11	=11	=11	=11	=11
0.r	2.F\	1F	0f	0.r	2.a/
.	4G\	.	.	.	4b-i\
.	2A\	1r	.	.	2cc\
.	1B-i	.	.	.	1dd
.	.	1r	1f	.	.
.	2A\	.	.	.	2cc\
=12	=12	=12	=12	=12	=12
0.r	2B-i\	0.r	1f	0.r	2dd\
.	4A\	.	.	.	4cc\
.	4G\	.	.	.	4b-i\
.	1F	.	2r	.	1a
.	.	.	1f	.	.
.	1r	.	.	.	2r
.	.	.	4e\	.	[2dd\
.	.	.	4d\	.	.
=13	=13	=13	=13	=13	=13
0.r	0.r	0.r	1e	0.r	2dd\]
.	.	.	.	.	2cc\
.	.	.	2d\	.	2b-i\
.	.	.	1g	.	2g/
.	.	.	.	.	1a
.	.	.	2f\	.	.
=14	=14	=14	=14	=14	=14
0.r	2r	0.r	2e\	0.r	1g
.	1G	.	4d\	.	.
.	.	.	4c\	.	.
.	.	.	1d	.	1r
.	2F\	.	.	.	.
.	2E\	.	2c\	.	1r
.	2C/	.	[2c\	.	.
=15	=15	=15	=15	=15	=15
0.r	1D	0.r	2c\]	0.r	1r
.	.	.	2B\	.	.
.	1C	.	2c\	.	2r
.	.	.	1e	.	1g
.	1r	.	.	.	.
.	.	.	2d\	.	2f/
=16	=16	=16	=16	=16	=16
0.r	2r	0.r	2c\	0.r	2e/
.	1c	.	2A/	.	2c/
.	.	.	1G	.	1d
.	2B-i\	.	.	.	.
.	2A\	.	1c	.	2c/
.	2F\	.	.	.	[2cc\
=17	=17	=17	=17	=17	=17
1r	1G	1r	1r	0.r	2cc\]
.	.	.	.	.	2b-i\
1r	1F	1r	2r	.	2a/
.	.	.	1f	.	2f/
1C	1C	1c	.	.	1g
.	.	.	2e\	.	.
=18	=18	=18	=18	=18	=18
0FF	[0.F	1A	2.d\	0f	0.a
.	.	.	8c\L	.	.
.	.	.	8B-i\J	.	.
.	.	2A/	1c	.	.
.	.	2.A/	.	.	.
1FF	.	.	2r	1f	.
.	.	4G/	.	.	.
.	.	4F/	[2f\	.	.
.	.	4E/	.	.	.
=19	=19	=19	=19	=19	=19
0BB-	0.F]	0D	2f\]	1d	0.r
.	.	.	2e\	.	.
.	.	.	2d\	2.f/	.
.	.	.	4c\	.	.
.	.	.	4B-i\	4g/	.
1AA	.	1F	1c	1a	.
=20	=20	=20	=20	=20	=20
0GG	0.r	2G/	1B-i	1d	0.r
.	.	2D/	.	.	.
.	.	2G/	1r	2r	.
.	.	2B\	.	2d/	.
2r	.	1A	1r	2e/	.
2D\	.	.	.	2f/	.
=21	=21	=21	=21	=21	=21
2.E\	0.r	0G	0.r	1g	0.r
4F\	.	.	.	.	.
1G	.	.	.	2r	.
.	.	.	.	2d/	.
2r	.	1r	.	4e/	.
.	.	.	.	4d/	.
2D\	.	.	.	4e/	.
.	.	.	.	4f/	.
=22	=22	=22	=22	=22	=22
4E\	0.r	0.r	0.r	4g/	0.r
4D\	.	.	.	4f/	.
4E\	.	.	.	4g/	.
4F\	.	.	.	4a/	.
4G\	.	.	.	2b-i\	.
4F\	.	.	.	.	.
4G\	.	.	.	2.a/	.
4A\	.	.	.	.	.
2B-i\	.	.	.	.	.
.	.	.	.	4g/	.
2G\	.	.	.	[2g/	.
=23	=23	=23	=23	=23	=23
1A	0.r	2r	0.r	2g/]	0.r
.	.	2D/	.	2f#i/	.
2G\	.	4E/	.	0g	.
.	.	4D/	.	.	.
2.GG/	.	4E/	.	.	.
.	.	4F/	.	.	.
.	.	4G/	.	.	.
4AA/	.	4F/	.	.	.
4BB/	.	4G/	.	.	.
4C/	.	4A/	.	.	.
=24	=24	=24	=24	=24	=24
2D\	0.r	2B-i\	0.r	2r	0.r
2.C/	.	2.A/	.	2.c/	.
4BB/	.	4G/	.	4d/	.
4AA/	.	1G	.	2e/	.
4GG/	.	.	.	.	.
1AA	.	.	.	4f/	.
.	.	.	.	4e/	.
.	.	2F/	.	4d/	.
.	.	.	.	4c/	.
=25	=25	=25	=25	=25	=25
2GG/	0.r	2G/	0.r	4B/	0.r
.	.	.	.	4A/	.
2C/	.	1G	.	2.e/	.
1D	.	.	.	.	.
.	.	.	.	4d/	.
.	.	2F/	.	1d	.
1AA	.	1E	.	.	.
.	.	.	.	2c#i/	.
=26	=26	=26	=26	=26	=26
0D	1r	2D/	1r	1.d	0.r
.	.	1B-	.	.	.
.	1r	.	1r	.	.
.	.	4A/	.	4c/	.
.	.	4G/	.	4B/	.
1D	1F	2F/	1f	1A	.
.	.	2F/	.	.	.
=27	=27	=27	=27	=27	=27
0.GG	0BB-i	0G	1d	1.B-i	0b-i
.	.	.	2d\	.	.
.	.	.	2.d\	2G/	.
.	1BB-i	1D	.	1G	1b-i
.	.	.	4c\	.	.
.	.	.	4B-i\	.	.
.	.	.	4A/	.	.
=28	=28	=28	=28	=28	=28
0.r	0E-	2r	0G	0.r	1g
.	.	1B-	.	.	.
.	.	.	.	.	2.b-i\
.	.	4A/	.	.	.
.	.	4G/	.	.	4cc\
.	1D	2F/	1B-i	.	1dd
.	.	4G/	.	.	.
.	.	4F/	.	.	.
=29	=29	=29	=29	=29	=29
0.r	0C	0G	2c\	0.r	1g
.	.	.	2G/	.	.
.	.	.	2c\	.	2r
.	.	.	2e-i\	.	2g/
.	2r	1r	1d	.	2a/
.	2G\	.	.	.	2b-i\
=30	=30	=30	=30	=30	=30
0.r	2.A\	0.r	0c	0.r	1cc
.	4B-i\	.	.	.	.
.	1c	.	.	.	2r
.	.	.	.	.	2g/
.	2r	.	1r	.	4a/
.	.	.	.	.	4g/
.	2G\	.	.	.	4a/
.	.	.	.	.	4b-i\
=31	=31	=31	=31	=31	=31
1r	4A\	1r	0.r	0.g	4cc\
.	4G\	.	.	.	4b-i\
.	4A\	.	.	.	4cc\
.	4B-i\	.	.	.	4dd\
1r	4c\	1r	.	.	2ee-i\
.	4B-i\	.	.	.	.
.	4c\	.	.	.	2.dd\
.	4d\	.	.	.	.
1C	2e-i\	1G	.	.	.
.	.	.	.	.	4cc\
.	2c\	.	.	.	[2cc\
=32	=32	=32	=32	=32	=32
2GG/	1d	2G/	2r	1g	2cc\]
2GG/	.	2G/	2G/	.	2b\
2.C/	2c\	2C/	4A/	2.e/	0cc
.	.	.	4G/	.	.
.	2.C/	1c	4A/	.	.
4BB/	.	.	4B-i\	8f/L	.
.	.	.	.	8g/J	.
1AA	.	.	4c\	1a	.
.	4D\	.	4B-i\	.	.
.	4E\	4B-i\	4c\	.	.
.	4F\	4A/	4d\	.	.
=33	=33	=33	=33	=33	=33
2GG/	2G\	2.B-\	2e-i\	2r	2r
2BB-/	2.F\	.	2.d\	2.d/	2.f/
.	.	4A/	.	.	.
2BB-i/	.	1F	.	.	.
.	4E\	.	4c\	4e/	4g/
2AA/	4D\	.	1c	2f/	2a/
.	4C/	.	.	.	.
1GG	1D	2r	.	2g/	4b-\
.	.	.	.	.	4a/
.	.	2B-i\	2B-i\	2d/	4g/
.	.	.	.	.	4f/
=34	=34	=34	=34	=34	=34
2AA/	2C/	4A/	2c\	2r	4e/
.	.	4B-i\	.	.	4d/
2FF/	2F\	4c\	1c	2f/	2.a/
.	.	4B-i\	.	.	.
2C/	1G	2G/	.	2.e/	.
.	.	.	.	.	4g/
2GG/	.	2G/	2B-i\	.	1g
.	.	.	.	8d/L	.
.	.	.	.	8c/J	.
1D	[1Dl	1A	1A	1d	.
.	.	.	.	.	2f#i/
=35	=35	=35	=35	=35	=35
0.GGl	0.D]	0.B-il	0.Gl	0.dl	0.gl
!!LO:LB:i:g=z
=36||	=36||	=36||	=36||	=36||	=36||
*>B	*>B	*>B	*>B	*>B	*>B
*clefF4	*clefF4	*clefGv2	*clefGv2	*clefG2	*clefG2
*k[]	*k[]	*k[]	*k[]	*k[]	*k[]
*M2/1	*M2/1	*M2/1	*M2/1	*M2/1	*M2/1
*met(C2)	*met(C2)	*met(C2)	*met(C2)	*met(C2)	*met(C2)
!!section: Agnus Dei II
!!!OMD: Agnus Dei II
2.GG/	0r	1G	0r	[0g	0r
4AA/	.	.	.	.	.
2BB/	.	2G/	.	.	.
[2C/	.	[2E/	.	.	.
=37.	=37.	=37.	=37.	=37.	=37.
4C/]	0r	4E/]	0r	0g]	0r
4BB/	.	4D/	.	.	.
4C/	.	4E/	.	.	.
4D\	.	4F/	.	.	.
1E	.	2G/	.	.	.
.	.	2C/	.	.	.
=38	=38	=38	=38	=38	=38
2.C/	0r	1c	0r	0g	0r
4D\	.	.	.	.	.
1E	.	1B	.	.	.
=39.	=39.	=39.	=39.	=39.	=39.
0AA	2.C/	0A	1c	0a	[0cc
.	4D\	.	.	.	.
.	2E\	.	2c\	.	.
.	[2F\	.	[2A/	.	.
=40	=40	=40	=40	=40	=40
0r	4F\]	0r	4A/]	0a	0cc]
.	4E\	.	4G/	.	.
.	4F\	.	4A/	.	.
.	4G\	.	4B\	.	.
.	1A	.	2c\	.	.
.	.	.	2F/	.	.
=41.	=41.	=41.	=41.	=41.	=41.
1r	2.F\	1r	1f	0a	0cc
.	4G\	.	.	.	.
1AA	1A	1E	1e	.	.
=42	=42	=42	=42	=42	=42
[0D	0D	2.F/	0d	0f	0dd
.	.	4G/	.	.	.
.	.	4A/	.	.	.
.	.	4B-i\	.	.	.
.	.	[2A/	.	.	.
=43.	=43.	=43.	=43.	=43.	=43.
0D]	0r	4A/]	0r	0f	0dd
.	.	4G/	.	.	.
.	.	4F/	.	.	.
.	.	4E/	.	.	.
.	.	2D/	.	.	.
.	.	[2d\	.	.	.
=44	=44	=44	=44	=44	=44
0D	1r	2d\]	1r	0f	0dd
.	.	4c\	.	.	.
.	.	4B\	.	.	.
.	1D	1A	1A	.	.
=45.	=45.	=45.	=45.	=45.	=45.
[0GG	[0G	0G	2.B\	0g	0b
.	.	.	4c\	.	.
.	.	.	4d\	.	.
.	.	.	4e\	.	.
.	.	.	[2d\	.	.
=46	=46	=46	=46	=46	=46
0GG]	0G]	0r	4d\]	0g	0b
.	.	.	4c\	.	.
.	.	.	4B\	.	.
.	.	.	4A/	.	.
.	.	.	2G/	.	.
.	.	.	[2g\	.	.
=47.	=47.	=47.	=47.	=47.	=47.
0GG	0G	0r	2g\]	0g	0b
.	.	.	4f\	.	.
.	.	.	4e\	.	.
.	.	.	1d	.	.
=48	=48	=48	=48	=48	=48
2.AA/	[0C	1r	0c	0e	0cc
4BB/	.	.	.	.	.
2C/	.	2r	.	.	.
[2AA/	.	[2C/	.	.	.
=49.	=49.	=49.	=49.	=49.	=49.
4AA/]	0C]	4C/]	0r	0e	0cc
4BB/	.	4D/	.	.	.
4C/	.	4E/	.	.	.
4D\	.	4F/	.	.	.
2E\	.	2G/	.	.	.
2AA/	.	2A/	.	.	.
=50	=50	=50	=50	=50	=50
0AA	0C	2A/	0r	0e	0cc
.	.	4G/	.	.	.
.	.	4F/	.	.	.
.	.	1E	.	.	.
=51.	=51.	=51.	=51.	=51.	=51.
0r	2.D\	2r	1r	[0f	0a
.	.	2.D/	.	.	.
.	4E\	.	.	.	.
.	2F\	.	2r	.	.
.	.	4E/	.	.	.
.	[2D\	4F/	[2F/	.	.
.	.	4G/	.	.	.
=52	=52	=52	=52	=52	=52
0r	4D\]	1A	4F/]	1f]	0a
.	4E\	.	4G/	.	.
.	4F\	.	4A/	.	.
.	4G\	.	4B\	.	.
.	2A\	2.F/	2c\	1f	.
.	2D\	.	2d\	.	.
.	.	4G/	.	.	.
=53.	=53.	=53.	=53.	=53.	=53.
1r	0D	4A/	2d\	0f	0a
.	.	4G/	.	.	.
.	.	4F/	4c\	.	.
.	.	4E/	4B\	.	.
1D	.	1F	1A	.	.
=54	=54	=54	=54	=54	=54
1GG	0r	0G	2r	0r	[0b
.	.	.	2.G/	.	.
1GG	.	.	.	.	.
.	.	.	4A/	.	.
.	.	.	4B\	.	.
.	.	.	4c\	.	.
=55.	=55.	=55.	=55.	=55.	=55.
1GG	0r	2r	1d	0r	1b]
.	.	2.G/	.	.	.
1GG	.	.	2.B\	.	1b
.	.	4F/	.	.	.
.	.	2E/	.	.	.
.	.	.	4c\	.	.
=56	=56	=56	=56	=56	=56
1GG	1r	2D/	4d\	0r	0b
.	.	.	4c\	.	.
.	.	2C/	4B\	.	.
.	.	.	4A/	.	.
1GG	1G	1D	1B	.	.
=57.	=57.	=57.	=57.	=57.	=57.
2.C/	1C	1C	0c	0r	0r
4D\	.	.	.	.	.
2E\	1C	1c	.	.	.
[2C/	.	.	.	.	.
=58	=58	=58	=58	=58	=58
4C/]	1C	1c	2r	0r	0r
4D\	.	.	.	.	.
4E\	.	.	2.c\	.	.
4F\	.	.	.	.	.
2E\	1C	1c	.	.	.
.	.	.	4B\	.	.
2AA/	.	.	2A/	.	.
=59.	=59.	=59.	=59.	=59.	=59.
2.C/	1C	0c	2G/	0r	0r
.	.	.	2F/	.	.
4D\	.	.	.	.	.
1E	1C	.	1G	.	.
=60	=60	=60	=60	=60	=60
[0D	2.F\	1.d	1F	0r	0r
.	4G\	.	.	.	.
.	2A\	.	1f	.	.
.	[2F\	4c\	.	.	.
.	.	4B\	.	.	.
=61.	=61.	=61.	=61.	=61.	=61.
0D_	4F\]	2A/	1f	0r	0r
.	4G\	.	.	.	.
.	4A\	2D/	.	.	.
.	4B-i\	.	.	.	.
.	2A\	2.F/	1f	.	.
.	2D\	.	.	.	.
.	.	4G/	.	.	.
=62	=62	=62	=62	=62	=62
0D]	2.F\	2A/	0f	0r	0r
.	.	2B-i\	.	.	.
.	4G\	.	.	.	.
.	1A	2A/	.	.	.
.	.	[2D/	.	.	.
=63.	=63.	=63.	=63.	=63.	=63.
[0GG	[0G	2D/]	1.g	1.g	0r
.	.	1E	.	.	.
.	.	4D/	4f\	2g/	.
.	.	4C/	4e\	.	.
=64	=64	=64	=64	=64	=64
0GG_	0G_	2D/	2d\	1g	0r
.	.	2E/	2G/	.	.
.	.	2D/	2.B\	1g	.
.	.	2E/	.	.	.
.	.	.	4c\	.	.
=65.	=65.	=65.	=65.	=65.	=65.
0GG]	0G]	2D/	2d\	0g	0r
.	.	2C/	2e\	.	.
.	.	1D	2d\	.	.
.	.	.	[2G/	.	.
=66	=66	=66	=66	=66	=66
0r	[0C	1C	2G/]	1e	1.cc
.	.	.	1A	.	.
.	.	1r	.	[1e	.
.	.	.	4G/	.	2cc\
.	.	.	4F/	.	.
=67.	=67.	=67.	=67.	=67.	=67.
0r	0C_	0r	2G/	1e]	1cc
.	.	.	2A/	.	.
.	.	.	2G/	1e	1cc
.	.	.	2A/	.	.
=68	=68	=68	=68	=68	=68
1r	0C]	1r	2G/	1e	0cc
.	.	.	2F/	.	.
1C	.	1C	1G	1e	.
=69.	=69.	=69.	=69.	=69.	=69.
1D	0r	2.F/	1F	1.f	1a
.	.	4G/	.	.	.
1D	.	2A/	1r	.	[1a
.	.	[2A/	.	4e/	.
.	.	.	.	4d/	.
=70	=70	=70	=70	=70	=70
0AA	0r	4A/]	0r	2c/	1a]
.	.	4G/	.	.	.
.	.	2F/	.	1d	.
.	.	1E	.	.	1a
.	.	.	.	2c#i/	.
=71.	=71.	=71.	=71.	=71.	=71.
0D	1r	[0D	1r	[0d	1a
.	1F	.	1F	.	1a
=72	=72	=72	=72	=72	=72
0GG	1G	0D]	2.B-i\	0d]	1.b-i
.	.	.	4c\	.	.
.	1G	.	2d\	.	.
.	.	.	[2d\	.	4a/
.	.	.	.	.	4g/
=73.	=73.	=73.	=73.	=73.	=73.
0r	0D	0r	4d\]	0r	2f/
.	.	.	4c\	.	.
.	.	.	2B-i\	.	1g
.	.	.	1A	.	.
.	.	.	.	.	2f#i/
=74	=74	=74	=74	=74	=74
1r	0G	0r	[0G	2r	[0g
.	.	.	.	2g/	.
2r	.	.	.	2.g/	.
2G\	.	.	.	.	.
.	.	.	.	4f/	.
=75.	=75.	=75.	=75.	=75.	=75.
2.G\	0C	0r	0G]	2e/	0g]
.	.	.	.	2d/	.
4F\	.	.	.	.	.
2E\	.	.	.	2.c/	.
2D\	.	.	.	.	.
.	.	.	.	4B/	.
=76	=76	=76	=76	=76	=76
2C/	0r	0r	0r	2G/	0r
4BB/	.	.	.	2.A/	.
4AA/	.	.	.	.	.
1BB	.	.	.	.	.
.	.	.	.	4G#i/	.
.	.	.	.	2G#i/	.
=77.	=77.	=77.	=77.	=77.	=77.
[0AA	1r	0A	0r	1A	2r
.	.	.	.	.	2cc\
.	2r	.	.	1a	2.cc\
.	2c\	.	.	.	.
.	.	.	.	.	4b\
=78	=78	=78	=78	=78	=78
0AA_	2.c\	1A	0r	1a	2a/
.	.	.	.	.	2g/
.	4B\	.	.	.	.
.	2A\	1A	.	1a	2.f/
.	2G\	.	.	.	.
.	.	.	.	.	4e/
=79.	=79.	=79.	=79.	=79.	=79.
0AA]	2F\	0A	0r	0a	2c/
.	4E\	.	.	.	2.d/
.	4D\	.	.	.	.
.	1E	.	.	.	.
.	.	.	.	.	4c#i/
.	.	.	.	.	2c#i/
=80	=80	=80	=80	=80	=80
0r	[0D	1.A	0d	1.f	1d
.	.	.	.	.	1dd
.	.	2F/	.	2d/	.
=81.	=81.	=81.	=81.	=81.	=81.
2r	0D_	2.F/	1d	2.d/	1dd
1D	.	.	.	.	.
.	.	4G/	.	4e/	.
.	.	2A/	1d	2f/	1dd
2GG/	.	2G/	.	2g/	.
=82	=82	=82	=82	=82	=82
2D\	0D]	2F/	0d	2a/	0dd
2GG/	.	2G/	.	2.g/	.
1D	.	1A	.	.	.
.	.	.	.	4f#i/	.
.	.	.	.	2f#i/	.
=83.	=83.	=83.	=83.	=83.	=83.
0GG	0r	0G	1.d	0g	1.b
.	.	.	2B\	.	2g/
=84	=84	=84	=84	=84	=84
0r	2r	0r	2.B\	0r	2.g/
.	1G	.	.	.	.
.	.	.	4c\	.	4a/
.	.	.	2d\	.	2b\
.	2C/	.	2c\	.	2cc\
=85.	=85.	=85.	=85.	=85.	=85.
0r	2G\	0r	2B\	0r	2dd\
.	2C/	.	2c\	.	2.cc\
.	1G	.	1d	.	.
.	.	.	.	.	4b\
.	.	.	.	.	2b\
=86	=86	=86	=86	=86	=86
1r	0C	0r	0c	2r	0cc
.	.	.	.	2g/	.
2r	.	.	.	2.g/	.
2G\	.	.	.	.	.
.	.	.	.	4f/	.
=87.	=87.	=87.	=87.	=87.	=87.
2.G\	0r	0r	0r	2e/	0r
.	.	.	.	2d/	.
4F\	.	.	.	.	.
2E\	.	.	.	2.c/	.
2D\	.	.	.	.	.
.	.	.	.	4B/	.
=88	=88	=88	=88	=88	=88
2C/	0r	0r	0r	2G/	0r
4BB/	.	.	.	1A	.
4AA/	.	.	.	.	.
1BB	.	.	.	.	.
.	.	.	.	2G#i/	.
=89.	=89.	=89.	=89.	=89.	=89.
[0AA	1r	0A	0r	1A	2r
.	.	.	.	.	2cc\
.	2r	.	.	1a	2.cc\
.	2c\	.	.	.	.
.	.	.	.	.	4b\
=90	=90	=90	=90	=90	=90
0AA_	2.c\	1A	0r	1a	2a/
.	.	.	.	.	2g/
.	4B\	.	.	.	.
.	2A\	1A	.	1a	2.f/
.	2G\	.	.	.	.
.	.	.	.	.	4e/
=91.	=91.	=91.	=91.	=91.	=91.
0AA]	2F\	0A	0r	0a	2c/
.	4E\	.	.	.	1d
.	4D\	.	.	.	.
.	1E	.	.	.	.
.	.	.	.	.	2c#i/
=92	=92	=92	=92	=92	=92
2r	[0Dl	1A	0d	1.f	1d
2D\	.	.	.	.	.
2D\	.	2A/	.	.	1dd
[2GG/	.	[2B-\	.	2d/	.
=93.	=93.	=93.	=93.	=93.	=93.
4GG/]	0D_	4B-\]	1d	2.d/	1dd
4AA/	.	4A/	.	.	.
4BB/	.	2G/	.	.	.
4C/	.	.	.	4e/	.
2D\	.	2F/	1d	4f/	1dd
.	.	.	.	4d/	.
2GG/	.	[2d\	.	4f/	.
.	.	.	.	4g/	.
=94	=94	=94	=94	=94	=94
2FF/	0D_	4d\]	0d	2a/	0dd
.	.	4c\	.	.	.
2GG/	.	2B-i\	.	1g	.
1D	.	1A	.	.	.
.	.	.	.	2f#i/	.
=95.	=95.	=95.	=95.	=95.	=95.
[0GGl	0D_	[0Gl	1d	[0gl	1.b
.	.	.	[1dl	.	.
.	.	.	.	.	2g/
=96	=96	=96	=96	=96	=96
0GG]	0D]	0G]	0d]	0g]	0gl
==	==	==	==	==	==
*-	*-	*-	*-	*-	*-
!!!RDF**kern: l=long note in original notation
!!!RDF**kern: i=editorial accidental
!!!ENC:	Chris Gage 01-02-2012
!!!END:	2013/07/19/
!!!EED:	Jesse Rodin
!!!EEV:	2013/07/19/
!!!ONB:	Translated from MusicXML and edited on 2013/07/19/ by Craig Sapp
!!muse2ps: T^@{OPR}^u^@{ONM}{. }@{OTL}^C^@{COM}^i2I150v100,100,100,100,100,130Q16
